Yaru++/emotes/16/food-cake.svg

<svg height="16" viewBox="0 0 4.2333332 4.2333335" width="16" xmlns="http://www.w3.org/2000/svg"><g transform="translate(0 -292.76666)"><path d="m2.1166667 293.80314c-1.16900288 0-2.11666682.11653-2.1166667.37631v.00046 2.35185c.00087555-.0395.0241797-.0789.0693613-.11714.24189116.20733.63619432.46992 2.0473054.46992 1.4111111-.0004 1.8070002-.26315 2.0473053-.47083.045527.0385.068834.0782.069361.11805v-2.35185-.00046c0-.25978-.9476639-.37631-2.1166663-.37631zm0 .23518c.7942838.00037 1.520797.005 1.8814814.16272v.44924h-3.76296291v-.45016c.36182173-.15691 1.08810721-.16161 1.88148151-.1618zm-.2480469 2.95967c.024436.00087.048938.002.073495.002-.024557-.00066-.049059-.001-.073495-.002z" fill="#8f4a02" stroke-width=".888889"/><path d="m2.1166667 293.94426a2.1166667.47037033 0 0 0 -1.88148151.25586v.89986a2.1166667.47037037 0 0 0 .23518518.0804v.29306c0 .0652.0524463.1176.11759255.1176.065146 0 .1175926-.0524.1175926-.1176v-.2384a2.1166667.47037037 0 0 0 1.41111118.12081 2.1166667.47037037 0 0 0 1.8814814-.25539v-.8994a2.1166667.47037033 0 0 0 -1.8814814-.25678z" fill="#e9e0ee" stroke-width=".888889"/><path d="m2.1166667 293.94426c-.7933743.00019-1.51965978.099-1.88148151.25586v.19522c.16635756.0718.41520713.12927.70555553.17271v.19982c0 .0652.052446.11759.11759258.11759.065146 0 .1175926-.0524.1175926-.11759v-.17088c.2890781.0322.6053977.0533.9407408.0533.7933741-.00019 1.5196596-.099 1.8814814-.25586v-.19338c-.3606844-.15727-1.0871976-.25642-1.8814814-.25679z" fill="#ddcfe5" stroke-width=".888889"/><g stroke-width="3.359579"><rect fill="#e9e0ee" height=".470377" rx=".117593" width=".235185" x=".235185" y="294.88544"/><path d="m1.175926 293.23917h.235185v1.175926h-.235185z" fill="#e50b18"/><path d="m2.587037 293.23917h.235185v1.175926h-.235185z" fill="#e50b18"/><path d="m1.6462961 293.59195c.0000016.19483-.1579429.35278-.3527778.35278-.194835 0-.35277958-.15795-.35277788-.35278.0000032-.19482.35277788-.58797.35277788-.58797s.3527746.39315.3527778.58797z" fill="#ffb801"/><path d="m3.0574072 293.59196c.0000017.19483-.1579428.35278-.3527777.35278-.1948351 0-.3527796-.15795-.3527779-.35278.0000032-.19482.3527779-.58794.3527779-.58794s.3527745.39312.3527777.58794z" fill="#ffb801"/></g><path d="m4.8886719.89648438s-1.3339723 1.48632872-1.3339844 2.22265622c-.0000009.1033232.014583.2025405.037109.2988282.1843784-.7750606 1.296875-2.0214844 1.296875-2.0214844s1.0626389 1.186931 1.2871093 1.9648437c.0168688-.0804453.0468762-.1562552.0468754-.2421875-.0000119-.7363275-1.3339843-2.22265622-1.3339843-2.22265622zm5.3339841 0s-1.333972 1.48632872-1.3339841 2.22265622c-.0000008.086111.029736.1617367.046875.2421875.2244705-.7779127 1.2871091-1.9648437 1.2871091-1.9648437s1.107985 1.2422233 1.294922 2.0175781c.02259-.094707.03711-.1929787.03711-.2949219-.000013-.7363275-1.332032-2.22265622-1.332032-2.22265622zm-2.222656 3.02148442c-.654833 0-1.2462151.025659-1.8457031.048828-.0565392.1866133-.1395504.3623955-.2636719.5078126.6870437-.0264567 1.3609866-.0566406 2.109375-.0566406.426867 0 .7943506.025644 1.203125.033203-.1197767-.1467234-.1969484-.3219674-.25-.5078124-.3136747-.0106249-.6149666-.0253906-.953125-.0253906zm3.480469.1171874c-.061252.1770552-.155638.3385382-.279297.4746094 2.821945.1736315 4.798828.6016498 4.798828 1.3300782v-.4980469-.0019531c0-.7022194-1.859243-1.1195736-4.519531-1.3046876zm-7.8281252.0761719c-2.1760871.2128171-3.65234409.6069231-3.6523438 1.2285157v.00195.4980469c-.0000003-.6529859 1.6020065-1.0618676 3.9628906-1.2656219-.1337712-.1296239-.2395342-.2876938-.3105468-.4628907zm3.4101562 12.3808599c.092357.0038.1845299.0053.2773438.0078-.092814 0-.1849873-.0045-.2773438-.0078z" fill="#fff" opacity=".3" stroke-width="3.35958" transform="matrix(.26458333 0 0 .26458333 0 292.76666)"/><path d="m15.738281 13.283203c-.908239.784932-2.404948 1.779738-7.738281 1.78125-5.3333332 0-6.8240469-.993734-7.73828125-1.777344-.1707651.14453-.25840958.294068-.26171875.44336v.5c.00330917-.149292.09095365-.29883.26171875-.44336.91423435.78361 2.40494805 1.777344 7.73828125 1.777344 5.333333-.0015 6.830042-.996318 7.738281-1.78125.172071.145512.259727.296652.261719.447266v-.5c-.002-.150614-.08965-.301754-.261719-.447266zm-8.675781 2.708985c.0923565.003288.1845299.007812.2773438.007812-.092814-.0025-.1849873-.004-.2773438-.0078z" fill="#0b0600" opacity=".2" stroke-width="3.35958" transform="matrix(.26458333 0 0 .26458333 0 292.76666)"/></g></svg>

<?xml version="1.0" encoding="UTF-8" standalone="no"?>
<!-- Created with Inkscape (http://www.inkscape.org/) -->

<svg
   xmlns:dc="http://purl.org/dc/elements/1.1/"
   xmlns:cc="http://creativecommons.org/ns#"
   xmlns:rdf="http://www.w3.org/1999/02/22-rdf-syntax-ns#"
   xmlns:svg="http://www.w3.org/2000/svg"
   xmlns="http://www.w3.org/2000/svg"
   xmlns:sodipodi="http://sodipodi.sourceforge.net/DTD/sodipodi-0.dtd"
   xmlns:inkscape="http://www.inkscape.org/namespaces/inkscape"
   width="16"
   version="1.1"
   height="16"
   viewBox="0 0 4.2333332 4.2333335"
   id="svg16"
   sodipodi:docname="food-cake.svg"
   inkscape:version="0.92.4 (5da689c313, 2019-01-14)">
  <sodipodi:namedview
     pagecolor="#ffffff"
     bordercolor="#666666"
     borderopacity="1"
     objecttolerance="10"
     gridtolerance="10"
     guidetolerance="10"
     inkscape:pageopacity="0"
     inkscape:pageshadow="2"
     inkscape:window-width="1920"
     inkscape:window-height="1016"
     id="namedview18"
     showgrid="false"
     inkscape:zoom="53.769976"
     inkscape:cx="7.9999999"
     inkscape:cy="7.301764"
     inkscape:window-x="0"
     inkscape:window-y="27"
     inkscape:window-maximized="1"
     inkscape:current-layer="layer1" />
  <defs
     id="defs4" />
  <metadata
     id="metadata7">
    <rdf:RDF>
      <cc:Work
         rdf:about="">
        <dc:format>image/svg+xml</dc:format>
        <dc:type
           rdf:resource="http://purl.org/dc/dcmitype/StillImage" />
        <dc:title></dc:title>
      </cc:Work>
    </rdf:RDF>
  </metadata>
  <g
     inkscape:label="Capa 1"
     inkscape:groupmode="layer"
     id="layer1"
     transform="translate(0,-292.76666)">
    <path
       inkscape:connector-curvature="0"
       style="fill:#8f4a02;stroke-width:0.88888878;fill-opacity:1"
       id="path4152"
       d="M 2.1166667,293.80314 C 0.94766382,293.80314 -1.1999999e-7,293.91967 0,294.17945 v 4.6e-4 2.35185 c 8.7555e-4,-0.0395 0.0241797,-0.0789 0.0693613,-0.11714 0.24189116,0.20733 0.63619432,0.46992 2.0473054,0.46992 1.4111111,-4e-4 1.8070002,-0.26315 2.0473053,-0.47083 0.045527,0.0385 0.068834,0.0782 0.069361,0.11805 v -2.35185 -4.6e-4 c 0,-0.25978 -0.9476639,-0.37631 -2.1166663,-0.37631 z m 0,0.23518 c 0.7942838,3.7e-4 1.520797,0.005 1.8814814,0.16272 v 0.44924 H 0.23518519 v -0.45016 c 0.36182173,-0.15691 1.08810721,-0.16161 1.88148151,-0.1618 z m -0.2480469,2.95967 c 0.024436,8.7e-4 0.048938,0.002 0.073495,0.002 -0.024557,-6.6e-4 -0.049059,-0.001 -0.073495,-0.002 z" />
    <path
       style="fill:#e9e0ee;stroke-width:0.88888878"
       id="path4199"
       d="m 2.1166667,293.94426 a 2.1166667,0.47037033 0 0 0 -1.88148151,0.25586 v 0.89986 a 2.1166667,0.47037037 0 0 0 0.23518518,0.0804 v 0.29306 c 0,0.0652 0.0524463,0.1176 0.11759255,0.1176 0.065146,0 0.1175926,-0.0524 0.1175926,-0.1176 v -0.2384 a 2.1166667,0.47037037 0 0 0 1.41111118,0.12081 2.1166667,0.47037037 0 0 0 1.8814814,-0.25539 v -0.8994 a 2.1166667,0.47037033 0 0 0 -1.8814814,-0.25678 z"
       inkscape:connector-curvature="0" />
    <path
       style="fill:#ddcfe5;stroke-width:0.88888878"
       id="path4210"
       d="m 2.1166667,293.94426 c -0.7933743,1.9e-4 -1.51965978,0.099 -1.88148151,0.25586 v 0.19522 c 0.16635756,0.0718 0.41520713,0.12927 0.70555553,0.17271 v 0.19982 c 0,0.0652 0.052446,0.11759 0.11759258,0.11759 0.065146,0 0.1175926,-0.0524 0.1175926,-0.11759 v -0.17088 c 0.2890781,0.0322 0.6053977,0.0533 0.9407408,0.0533 0.7933741,-1.9e-4 1.5196596,-0.099 1.8814814,-0.25586 v -0.19338 c -0.3606844,-0.15727 -1.0871976,-0.25642 -1.8814814,-0.25679 z"
       inkscape:connector-curvature="0" />
    <rect
       id="rect4183"
       style="fill:#e9e0ee;stroke-width:3.35957932"
       x="0.23518516"
       y="294.88544"
       rx="0.11759289"
       width="0.23518488"
       height="0.47037685" />
    <rect
       id="rect4192"
       style="fill:#e50b18;stroke-width:3.35957932;fill-opacity:1"
       x="1.1759255"
       y="293.23917"
       rx="0"
       width="0.23518488"
       height="1.1759262" />
    <rect
       id="rect4196"
       style="fill:#e50b18;stroke-width:3.35957932;fill-opacity:1"
       x="2.5870366"
       y="293.23917"
       rx="0"
       width="0.23518488"
       height="1.1759262" />
    <path
       inkscape:connector-curvature="0"
       style="fill:#ffb801;stroke-width:3.35957932;fill-opacity:1"
       id="path4198"
       d="m 1.6462961,293.59195 c 1.6e-6,0.19483 -0.1579429,0.35278 -0.3527778,0.35278 -0.194835,0 -0.35277958,-0.15795 -0.35277788,-0.35278 3.2e-6,-0.19482 0.35277788,-0.58797 0.35277788,-0.58797 0,0 0.3527746,0.39315 0.3527778,0.58797 z" />
    <path
       inkscape:connector-curvature="0"
       style="fill:#ffb801;stroke-width:3.35957932;fill-opacity:1"
       id="path4201"
       d="m 3.0574072,293.59196 c 1.7e-6,0.19483 -0.1579428,0.35278 -0.3527777,0.35278 -0.1948351,0 -0.3527796,-0.15795 -0.3527779,-0.35278 3.2e-6,-0.19482 0.3527779,-0.58794 0.3527779,-0.58794 0,0 0.3527745,0.39312 0.3527777,0.58794 z" />
    <path
       style="opacity:0.3;fill:#ffffff;fill-opacity:1;stroke-width:3.35957956"
       d="m 4.8886719,0.89648438 c 0,0 -1.3339723,1.48632872 -1.3339844,2.22265622 -9e-7,0.1033232 0.014583,0.2025405 0.037109,0.2988282 0.1843784,-0.7750606 1.296875,-2.0214844 1.296875,-2.0214844 0,0 1.0626389,1.186931 1.2871093,1.9648437 C 6.1926496,3.2808828 6.222657,3.2050729 6.2226562,3.1191406 6.2226443,2.3828131 4.8886719,0.89648438 4.8886719,0.89648438 Z m 5.3339841,0 c 0,0 -1.333972,1.48632872 -1.3339841,2.22265622 -8e-7,0.086111 0.029736,0.1617367 0.046875,0.2421875 0.2244705,-0.7779127 1.2871091,-1.9648437 1.2871091,-1.9648437 0,0 1.107985,1.2422233 1.294922,2.0175781 0.02259,-0.094707 0.03711,-0.1929787 0.03711,-0.2949219 -1.3e-5,-0.7363275 -1.332032,-2.22265622 -1.332032,-2.22265622 z M 8,3.9179688 c -0.654833,0 -1.2462151,0.025659 -1.8457031,0.048828 C 6.0977577,4.1534101 6.0147465,4.3291923 5.890625,4.4746094 6.5776687,4.4481527 7.2516116,4.4179688 8,4.4179688 c 0.426867,0 0.7943506,0.025644 1.203125,0.033203 C 9.0833483,4.3044484 9.0061766,4.1292044 8.953125,3.9433594 8.6394503,3.9327345 8.3381584,3.9179688 8,3.9179688 Z m 3.480469,0.1171874 C 11.419217,4.2122114 11.324831,4.3736944 11.201172,4.5097656 14.023117,4.6833971 16,5.1114154 16,5.8398438 V 5.3417969 5.3398438 C 16,4.6376244 14.140757,4.2202702 11.480469,4.0351562 Z M 3.6523438,4.1113281 C 1.4762567,4.3241452 -2.871318e-7,4.7182512 0,5.3398438 v 0.00195 0.4980469 C -3.016315e-7,5.1868548 1.6020065,4.7779731 3.9628906,4.5742188 3.8291194,4.4445949 3.7233564,4.286525 3.6523438,4.1113281 Z M 7.0625,16.492188 c 0.092357,0.0038 0.1845299,0.0053 0.2773438,0.0078 -0.092814,0 -0.1849873,-0.0045 -0.2773438,-0.0078 z"
       transform="matrix(0.26458333,0,0,0.26458333,0,292.76666)"
       id="path830"
       inkscape:connector-curvature="0"
       sodipodi:nodetypes="ccccccccccccccsccsccsccccsccsccccccc" />
    <path
       style="opacity:0.2;fill:#0b0600;fill-opacity:1;stroke-width:3.35957956"
       d="M 15.738281,13.283203 C 14.830042,14.068135 13.333333,15.062941 8,15.064453 c -5.3333332,0 -6.8240469,-0.993734 -7.73828125,-1.777344 C 0.09095365,13.431639 0.00330917,13.581177 0,13.730469 v 0.5 C 0.00330917,14.081177 0.09095365,13.931639 0.26171875,13.787109 1.1759531,14.570719 2.6666668,15.564453 8,15.564453 c 5.333333,-0.0015 6.830042,-0.996318 7.738281,-1.78125 0.172071,0.145512 0.259727,0.296652 0.261719,0.447266 v -0.5 c -0.002,-0.150614 -0.08965,-0.301754 -0.261719,-0.447266 z M 7.0625,15.992188 C 7.1548565,15.995476 7.2470299,16 7.3398438,16 c -0.092814,-0.0025 -0.1849873,-0.004 -0.2773438,-0.0078 z"
       transform="matrix(0.26458333,0,0,0.26458333,0,292.76666)"
       id="path840"
       inkscape:connector-curvature="0"
       sodipodi:nodetypes="cccccccccccccc" />
  </g>
</svg>
